X:1
T:Hugo Distler 1908-1942
T:Es geht ein dunkle Wolk herein
%%score [ 1 2 3 ( 4 5 ) ]
L:1/8
Q:1/4=90
M:3/4
K:Bb
V:1 treble nm="Sopran"
V:2 treble nm="Alt"
V:3 treble-8 nm="Tenor"
V:4 bass nm="Bass"
V:5 bass 
V:1
 G2 | d4 d2 | c4 A2 x2 | B4 c2 | A4 d2 x2 | d4 d2 x2 | c4 A2 | B4 c2 |"^," A4 G2 | F4 =E2 | %10
w: Es|geht ein|dunk- le|Wolk her-|ein, mich|dünkt, es|wird ein|Re- gen|sein, ein|Re- gen|
w: Und|scheinst du,|lie- be|Sonn', nit|bald, so|we- set|alls im|grü- nen|Wald, und|all die|
w: Es|geht ein|dunk- le|Wolk her-|ein, es|soll und|muss ge-|schie- den|sein. A-|de, Feins-|
[M:4/4] (D3 =E FD G2- |[M:6/4]"^," G2 F3 G AB c2) d2 |[M:4/4] (f2 =ed e4) | %13
w: aus * * * *|* * * * * * den|Wol- * * *|
w: mü * * * *|* * * * * * den|Blu- * * *|
w: lieb, * * * *|* * * * * * dein|Schei- * * *|
[M:4/4]"^," d2 c2 B2 c2 |[M:3/4] A4 A2 |[M:4/4] G2 G2 G2 G2 |[M:3/4] G2 G2 (G2- | %17
w: ken, wohl in das|grü- ne|Gras, wohl in das|grü- ne Gras|
w: men, die ha- ben|mü- den|Tod, die ha- ben|mü- den Tod|
w: den macht mir das|Her- ze|schwer, macht mir das|Her- ze schwer|
[M:4/4] GA d3 cGF |{A} G8) |] %19
w: ||
w: ||
w: ||
V:2
 z2 | z2 z2 D2 | G4 G2 x2 | F4 D2 | E4 F2 x2 | D4 G2 x2 | G2 G2 F2 | D2 E2 F2 |"^," D4 (B,C) | %9
w: |Es|geht ein|dunk- le|Wolk her-|ein, mich|dünkt, es wird|ein Re- gen|sein, ein *|
w: |Und|scheinst du,|lie- be|Sonn', nit|bald, so|we- set alls|im grü- nen|Wald, und *|
w: |Es|geht ein|dunk- le|Wolk her-|ein, es|soll und muss|ge- schie- den|sein. A- *|
 D3 C B,2 |[M:4/4] (A,6 B,2- |[M:6/4] B,CDE"^," F2 D3 EFG |[M:4/4] A2) G2 G4 | %13
w: Re- * gen|aus *||* den Wol-|
w: all * die|mü- *||* den Blu-|
w: de, * Feins-|lieb *||* dein Schei-|
[M:4/4]"^," G2 G4 G2 |[M:3/4] G2 F2 F2 |[M:4/4] D2 E2 E2 G2 |[M:3/4] F4 E2 |[M:4/4] (D6 C2 | D8) |] %19
w: ken, wohl in|das grü- ne|Gras, wohl in das|grü- ne|Gras *||
w: men, die ha-|ben mü- den|Tod, die ha- ben|mü- den|Tod *||
w: den macht mir|das Her- ze|schwer, macht mir das|Her- ze|schwer *||
V:3
 z2 | z2 z2 B2 | B2 B2 B4 | c2 (d4 | c2) B2 A4 | B2 A2 A2 x2 | A2 x4 | A2 A2 G2 |"^," ^F4 (GA) | %9
w: |Es|geht ein dunk-|le Wolk|* her- ein,|mich dünkt, es|wird|ein Re- gen|sein, ein *|
w: |Und|scheinst du, lie-|be Sonn',|* nit bald,|so we- set|alls|im grü- nen|Wald, und *|
w: |Es|geht ein dunk-|le Wolk|* her- ein,|es soll und|muss|ge- schie- den|sein. A- *|
 B3 A G2 |[M:4/4] (F6 G2- |[M:6/4] GABc d4) c2 (B2- |[M:4/4] Bc d2 c4) | %13
w: Re- * gen|aus *|* * * * * den Wol-||
w: all * die|mü- *|* * * * * den Blu-||
w: de, * Feins-|lieb *|* * * * * dein Schei-||
[M:4/4][K:treble-8]"^," =B2 =e2 d2 e2 |[M:3/4] d4 c2 |[M:4/4] =B2 c2 _B2 c2 |[M:3/4] A4 A2 | %17
w: ken, wohl in das|grü- ne|Gras, wohl in das|grü- ne|
w: men, die ha- ben|mü- den|Tod, die ha- ben|mü- den|
w: den macht mir das|Her- ze|schwer, macht mir das|Her- ze|
[M:4/4] x8- | x8 |] %19
w: Gras||
w: Tod||
w: schwer||
V:4
 z2 | z2 z2 G,2 | G,4 E,2 x2 | D,4 G,2 | (G,3 A,) G,2 x2 | F,2 F,2 F,4 | E,2 D,2 x2 | D,2 D,2 C,2 | %8
w: |Es|geht ein|dunk- le|Wolk * her-|ein, mich dünkt,|es wird|ein Re- gen|
w: |Und|scheinst du,|lie- be|Sonn', * nit|bald, so we-|set alls|im grü- nen|
w: |Es|geht ein|dunk- le|Wolk * her-|ein, es soll|und muss|ge- schie- den|
"^," D,4 E,2 | B,,4 C,2 |[M:4/4] (D,3 C,) B,,2 (E,2- |[M:6/4] E,2 D,3 C, B,,2 E,2 D,2- | %12
w: sein, ein|Re- gen|aus * den Wol||
w: Wald, und|all die|mü- * den Blu||
w: sein, A-|de, Feins-|lieb * dein Schei||
[M:4/4] D,D,C,B,, C,4) |[M:4/4] D,8- |[M:3/4] D,6 |[M:4/4]"^," D,2 C,2 D,2 E,2 |[M:3/4] D,4 C,2 | %17
w: |ken,||* wohl in das|grü- ne|
w: |men,||* die ha- ben|mü- den|
w: |den,||* macht mir das|Her- ze|
[M:4/4] x8- | x8 |] %19
w: Gras.||
w: Tod.||
w: schwer.||
V:5
 x2 | x6 | x8 | x6 | x8 | x8 | x6 | x6 | x6 | x6 |[M:4/4] x8 |[M:6/4] x12 |[M:4/4] x8 | %13
[M:4/4] G,,8- |[M:3/4] G,,6 |[M:4/4] G,,2 C,2 D,2 E,2 |[M:3/4] D,4 C,2 |[M:4/4] x8- | x8 |] %19

